hero/solid/camera.svg

<svg width="24" height="24" viewBox="0 0 24 24" fill="none" xmlns="http://www.w3.org/2000/svg">
<path d="M12 9C9.92893 9 8.25 10.6789 8.25 12.75C8.25 14.8211 9.92893 16.5 12 16.5C14.0711 16.5 15.75 14.8211 15.75 12.75C15.75 10.6789 14.0711 9 12 9Z" fill="#0F172A"/>
<path fill-rule="evenodd" clip-rule="evenodd" d="M9.34429 3.07113C10.2236 3.02391 11.109 3 12 3C12.891 3 13.7764 3.02391 14.6557 3.07113C15.6233 3.12309 16.4854 3.65612 16.9882 4.46184L17.8094 5.77786C18.0485 6.16099 18.4544 6.42131 18.9195 6.48741C19.3049 6.54218 19.6888 6.60145 20.0713 6.66518C21.5031 6.90378 22.5 8.15785 22.5 9.57403V18C22.5 19.6569 21.1569 21 19.5 21H4.5C2.84315 21 1.5 19.6569 1.5 18V9.57402C1.5 8.15784 2.49686 6.90377 3.92872 6.66517C4.31116 6.60144 4.6951 6.54217 5.08048 6.4874C5.54556 6.42131 5.95152 6.16099 6.19061 5.77785L7.01181 4.46184C7.5146 3.65612 8.37667 3.12309 9.34429 3.07113ZM6.75 12.75C6.75 9.8505 9.1005 7.5 12 7.5C14.8995 7.5 17.25 9.8505 17.25 12.75C17.25 15.6495 14.8995 18 12 18C9.1005 18 6.75 15.6495 6.75 12.75ZM18.75 11.25C19.1642 11.25 19.5 10.9142 19.5 10.5C19.5 10.0858 19.1642 9.75 18.75 9.75C18.3358 9.75 18 10.0858 18 10.5C18 10.9142 18.3358 11.25 18.75 11.25Z" fill="#0F172A"/>
</svg>

<svg viewBox="0 0 24 24" xmlns="http://www.w3.org/2000/svg"><g><path d="M12 9v0c-2.08 0-3.75 1.67-3.75 3.75 0 2.07 1.67 3.75 3.75 3.75v0c2.07 0 3.75-1.68 3.75-3.75C15.75 10.67 14.07 9 12 9Z"/><path fill-rule="evenodd" d="M9.344 3.07v-.001c1.76-.1 3.54-.1 5.31 0 .96.05 1.83.585 2.33 1.39l.82 1.31c.24.383.64.64 1.11.71 .38.05.77.11 1.15.17 1.43.23 2.42 1.49 2.42 2.909v8.42 0c0 1.65-1.35 3-3 3h-15v0c-1.66 0-3-1.35-3-3V9.55c0-1.42.99-2.67 2.429-2.909 .38-.07.76-.13 1.15-.18V6.46c.45-.07.86-.33 1.11-.71l.82-1.32v0c.5-.82 1.37-1.34 2.332-1.39Zm-2.6 9.679v0c0-2.9 2.35-5.25 5.25-5.25 2.89 0 5.25 2.35 5.25 5.25v0c0 2.89-2.36 5.25-5.25 5.25 -2.9 0-5.25-2.36-5.25-5.25Zm12-1.5v0c.41 0 .75-.34.75-.75 0-.42-.34-.75-.75-.75v0c-.42 0-.75.33-.75.75 0 .41.33.75.75.75Z"/></g></svg>
